src/assets/icons/yandex.svg

<svg viewBox="0 0 27 26" xmlns="http://www.w3.org/2000/svg">
<rect x="0.5" width="26" height="26" rx="13" fill="#E94F32"/>
<path d="M15.416 7.28207H14.1003C11.8449 7.28207 10.7172 8.40978 10.7172 10.1013C10.7172 11.9809 11.469 12.9206 13.1606 14.0483L14.4762 14.9881L10.7172 20.8146H7.70996L11.281 15.552C9.21358 14.0483 8.08586 12.7327 8.08586 10.2893C8.08586 7.28207 10.1533 5.2146 14.1003 5.2146H18.0473V20.8146H15.416V7.28207Z" fill="white"/>
</svg>

<svg viewBox="0 0 27 26" xmlns="http://www.w3.org/2000/svg">
  <path d="M15.416 7.282H14.1c-2.255 0-3.383 1.128-3.383 2.82 0 1.879.752 2.819 2.444 3.946l1.315.94-3.759 5.827H7.71l3.571-5.263c-2.067-1.504-3.195-2.82-3.195-5.263 0-3.007 2.067-5.074 6.014-5.074h3.947v15.6h-2.631V7.282z"/>
</svg>
